X:129
T:Good Mornin', Ladies All (a)
M:6/8
L:1/8
Q:1/4=3D100
K:D
A|\
F2A F2D|D2D D3|
F2G E3 |E3  E3|E2F D3|DB,C D2A|
F2A FDD|D2D DA,A,|B,2D B,2D|(B,A,3)zA,|
(A,3 D)zG,|F,2A, D2E|F2G E2F|D3||
